icons/op-time-24.svg

<svg width="24" height="24" viewBox="0 0 24 24" fill="none" xmlns="http://www.w3.org/2000/svg">
<path d="M12 6.33071C15.1181 6.33071 17.6693 8.88189 17.6693 12C17.6693 15.1181 15.1181 17.6693 12 17.6693C8.88189 17.6693 6.33071 15.1181 6.33071 12C6.33071 8.88189 8.88189 6.33071 12 6.33071ZM12 4C7.59055 4 4 7.59055 4 12C4 16.4094 7.59055 20 12 20C16.4094 20 20 16.4094 20 12C20 7.59055 16.4094 4 12 4ZM12.126 11.8425C11.7795 11.8425 11.5276 11.5906 11.5276 11.2756V8.94488C11.5276 8.62992 11.7795 8.34646 12.126 8.34646C12.4409 8.34646 12.6929 8.62992 12.6929 8.94488V11.2756C12.6929 11.5906 12.4409 11.8425 12.126 11.8425ZM15.0236 14.1732C14.8976 14.1732 14.7717 14.1417 14.6772 14.0472L11.748 11.7165C11.4961 11.5276 11.4646 11.1496 11.6535 10.8976C11.874 10.6457 12.2205 10.6142 12.4724 10.8031L15.4016 13.1339C15.6535 13.3543 15.685 13.7008 15.4961 13.9528C15.3701 14.1102 15.2126 14.1732 15.0236 14.1732Z" fill="black"/>
</svg>

<svg xmlns="http://www.w3.org/2000/svg" width="24" height="24" viewBox="0 0 24 24"><path d="M12 6.331c3.118 0 5.669 2.551 5.669 5.669 0 3.118-2.551 5.669-5.669 5.669-3.118 0-5.669-2.551-5.669-5.669 0-3.118 2.551-5.669 5.669-5.669ZM12 4c-4.409 0-8 3.591-8 8s3.591 8 8 8 8-3.591 8-8-3.591-8-8-8Zm.126 7.842c-.346 0-.598-.251-.598-.566V8.945c0-.315.252-.599.598-.599.315 0 .567.284.567.599v2.331a.564.564 0 0 1-.567.566Zm2.898 2.331a.474.474 0 0 1-.347-.126l-2.929-2.331c-.252-.188-.283-.566-.095-.818a.596.596 0 0 1 .819-.095l2.93 2.331c.251.22.283.567.094.819a.567.567 0 0 1-.472.22Z"/></svg>
